X:454
T: IN DEN HEISSEN JULITAGEN
N: F0853
O: Europa, Mitteleuropa, Deutschland
R: erzaehlendes Volks - Lied, Ballade, Attentat, Spott
M: 2/4
L: 1/16
K: G
 | D2B2B2A2 | A2G2G2G2 |
B2d2d2c2 | B2d2d2d2 |
c3ee2c2 | B2d2d4 |
A3cc2A2 | A2G2G4

@@@ Tune index: 5885
